X:1
%%scale 0.65
%%text 10
T:Reign of Love
C:Keith Murphy
M:C|
K:Em
L:1/4
|:"Em"E F/2G/2 A B|G2 F2|"D"A G/2F/2 E A|G/2F/2 E F/2E/2 D|
  "Em"E F/2G/2 A B|G2 F2|"D"A G/2F/2 E/2F/2 D|1 "A" E3 B,:|2 "A" E4||
|:"Em"e B d A|A B/2A/2 G F|"D"A G/2F/2 E A|"G"B G"D"d2|
  "Em"e B d A|A B/2A/2 G F|"D"A G/2F/2 E/2F/2 D|1 "A" E3 B,:|2 "A" E4|]
W:(C) Copyright Keith Murphy.  Black Isle Music, BMI
